!!!SOCIAL_FUNCTION:	isleta
!!!PDT:	1957
!!!OTL: No_46_Corn-grinding_Song_(a).krn
!!!LING_GROUP: Keresan
!!!LANG: Tone
!!!REG: Southwest
**kern
*staff1
=1-
*clefF4
*k[]
*M3/4
4c\
4c\
8.c\L
16A\Jk
=2
4c\
4c\
8c\
16r
16c\
=3
*M2/4
4e\
8.c\L
16d\Jk
=4
4c\
8c\
8r
=5
*M3/8
8.c\L
16A\L
32A\K
16.G\JJ
=6
*M2/4
4A\
4A\
=7
16A\LK
8.G\J
8E\L
16G\L
16G\JJ
=8
4A\
4A\
=9
*M3/4
16A\LK
8.G\J
8E/L
8C/J
16E\LK
8.E\J
=10
*M2/4
4C/
4C/
=11
8r
8C/
8.C/L
16c/Jk
=12
4e\
8.c\L
16d\Jk
=13
4c\
8c\
8r
=14!|:
*M3/8
8.c\L
16A\L
32A\K
16.G\JJ
=15
*M2/4
4A\
4A\
=16
16A\LK
8.G\J
8E\L
16G\L
16G\JJ
=17
4A\
8A\
8r
=18
*M3/4
16A\LK
8.G\J
8E/L
16C/L
16C/JJ
16E\LK
8.E\J
=19
*M2/4
4C/
4C/
=20
8r
8C/
8C/
8r
=21:|!
8r
8C/
4C/
=22:|!
8r
8C/
8.C/L
16c/Jk
=23
4e\
8.c\L
16d\Jk
=24
4c\
8c\
8r
=25
*M3/8
8.c\L
16A\L
32A\K
16.G\JJ
=26
*M2/4
4A\
4A\
=27
16A\LK
8.G\J
8E\L
16G\L
16G\JJ
=28
4A\
8A\
8r
=29
*M3/4
16A\LK
8.G\J
8E/L
16C/L
16C/JJ
16E\LK
8.E\J
=30
4C/
8E/L
8C/J
8C/
8r
=31
*M2/4
8G\L
8G\J
16E/LL
16E/
16C/
16C/JJ
=32
*M3/4
8E\L
8G\J
16E/LK
8.C/J
8C/
8r
=33
*M2/4
8C/L
8E/J
8C/L
8AA/J
=34
8C^/L
8C/J
8C^/L
8C/J
=35
*M3/4
8C^/L
8G/J
16G\LK
8.E\J
8C/
8r
=36
16E/LL
16C/J
8C/J
16E/LL
16C/J
8C/J
8E\L
8G\J
=37
8C/L
8C/J
8C/L
8C/J
8C/L
8C/J
=38
8C/L
8C/J
2r
==
*-
